X: 4
T: Boxiana
R: jig
M: 6/8
L: 1/8
K: Amaj
a2 e c2 e|f2 d agf|efe edc|cB^A Be/f/g|
aee cAe|fdf agf|e2 e dcB|1 AcB A:|2 A3- A||
d2 B Bcd|cAe cAE|d2 B BB/c/d|cAe cAa|
gaa f2 a|eaa d2 a|g=g^g ee/f/g|1 a3 e:|2 a3- a||

